src/assets/icons/youtube.svg

<svg fill="none" height="18" viewBox="0 0 25 18" width="25" xmlns="http://www.w3.org/2000/svg"><path d="m12.5001.147705c-11.45738.200865-12.172463-.457972-12.172463 8.532755 0 8.99074.690973 8.29174 12.172463 8.53274 11.6421-.3374 12.1724.4259 12.1724-8.53274 0-8.958589-1.1007-8.396167-12.1724-8.532755zm-2.4104 12.204595v-7.35972l6.2589 3.68788-6.2589 3.67984z" fill="#1a0233"/><path d="m16.3486 8.68056-6.259 3.67184v-7.35972z" fill="#fff"/></svg>

<svg width="25" height="18" viewBox="0 0 25 18" fill="none" xmlns="http://www.w3.org/2000/svg">
<path d="M12.5001 0.147705C1.04272 0.34857 0.327637 -0.310267 0.327637 8.68046C0.327637 17.6712 1.01861 16.9722 12.5001 17.2132C24.1422 16.8758 24.6725 17.6391 24.6725 8.68046C24.6725 -0.278129 23.5718 0.284293 12.5001 0.147705ZM10.0897 12.3523V4.99258L16.3486 8.68046L10.0897 12.3603V12.3523Z" fill="#1A0233"/>
<path d="M16.3486 8.68056L10.0896 12.3524V4.99268L16.3486 8.68056Z" fill="white"/>
</svg>
